svg/200/outlined/sprinkler-fill.svg

<svg xmlns="http://www.w3.org/2000/svg" width="48" height="48" viewBox="0 -960 960 960"><path d="M480-488q-13.579 0-22.289-9.095Q449-506.19 449-519.769q0-12.81 8.711-21.905 8.71-9.095 22.289-9.095t22.289 9.095Q511-532.579 511-519.769q0 13.579-8.711 22.674Q493.579-488 480-488Zm0-160q-13.579 0-22.289-9.095Q449-666.19 449-679.769q0-12.81 8.711-21.905 8.71-9.095 22.289-9.095t22.289 9.095Q511-692.579 511-679.769q0 13.579-8.711 22.674Q493.579-648 480-648Zm0-160q-13.579 0-22.289-9.095Q449-826.19 449-839.769q0-12.81 8.711-21.905 8.71-9.095 22.289-9.095t22.289 9.095Q511-852.579 511-839.769q0 13.579-8.711 22.674Q493.579-808 480-808Zm119.769 399q-13.579 0-22.674-8.711Q568-426.421 568-440t9.095-22.289Q586.19-471 599.769-471q12.81 0 21.905 8.711 9.095 8.71 9.095 22.289t-9.095 22.289Q612.579-409 599.769-409Zm113-114q-13.579 0-22.674-8.711Q681-540.421 681-554t9.095-22.289Q699.19-585 712.769-585q12.81 0 21.905 8.711 9.095 8.71 9.095 22.289t-9.095 22.289Q725.579-523 712.769-523Zm113-112q-13.579 0-22.674-8.711Q794-652.421 794-666t9.095-22.289Q812.19-697 825.769-697q12.81 0 21.905 8.711 9.095 8.71 9.095 22.289t-9.095 22.289Q838.579-635 825.769-635ZM360.231-409q-12.81 0-21.905-8.711-9.095-8.71-9.095-22.289t9.095-22.289Q347.421-471 360.231-471q13.579 0 22.674 8.711Q392-453.579 392-440t-9.095 22.289Q373.81-409 360.231-409Zm-113-114q-12.81 0-21.905-8.711-9.095-8.71-9.095-22.289t9.095-22.289Q234.421-585 247.231-585q13.579 0 22.674 8.711Q279-567.579 279-554t-9.095 22.289Q260.81-523 247.231-523Zm-113-112q-12.81 0-21.905-8.711-9.095-8.71-9.095-22.289t9.095-22.289Q121.421-697 134.231-697q13.579 0 22.674 8.711Q166-679.579 166-666t-9.095 22.289Q147.81-635 134.231-635Zm330.384 535v-164.615h-160v-30.77h350.77v30.77h-160V-100h-30.77Z"/></svg>

<svg xmlns="http://www.w3.org/2000/svg" width="48" height="48" viewBox="0 -960 960 960"><path d="M480-488q-13.58 0-22.29-9.1-8.71-9.09-8.71-22.67 0-12.81 8.71-21.9 8.71-9.1 22.29-9.1 13.58 0 22.29 9.1 8.71 9.09 8.71 21.9 0 13.58-8.71 22.67-8.71 9.1-22.29 9.1Zm0-160q-13.58 0-22.29-9.1-8.71-9.09-8.71-22.67 0-12.81 8.71-21.9 8.71-9.1 22.29-9.1 13.58 0 22.29 9.1 8.71 9.09 8.71 21.9 0 13.58-8.71 22.67-8.71 9.1-22.29 9.1Zm0-160q-13.58 0-22.29-9.1-8.71-9.09-8.71-22.67 0-12.81 8.71-21.9 8.71-9.1 22.29-9.1 13.58 0 22.29 9.1 8.71 9.09 8.71 21.9 0 13.58-8.71 22.67-8.71 9.1-22.29 9.1Zm119.77 399q-13.58 0-22.67-8.71-9.1-8.71-9.1-22.29 0-13.58 9.1-22.29 9.09-8.71 22.67-8.71 12.81 0 21.9 8.71 9.1 8.71 9.1 22.29 0 13.58-9.1 22.29-9.09 8.71-21.9 8.71Zm113-114q-13.58 0-22.67-8.71-9.1-8.71-9.1-22.29 0-13.58 9.1-22.29 9.09-8.71 22.67-8.71 12.81 0 21.9 8.71 9.1 8.71 9.1 22.29 0 13.58-9.1 22.29-9.09 8.71-21.9 8.71Zm113-112q-13.58 0-22.67-8.71-9.1-8.71-9.1-22.29 0-13.58 9.1-22.29 9.09-8.71 22.67-8.71 12.81 0 21.9 8.71 9.1 8.71 9.1 22.29 0 13.58-9.1 22.29-9.09 8.71-21.9 8.71ZM360.23-409q-12.81 0-21.9-8.71-9.1-8.71-9.1-22.29 0-13.58 9.1-22.29 9.09-8.71 21.9-8.71 13.58 0 22.67 8.71 9.1 8.71 9.1 22.29 0 13.58-9.1 22.29-9.09 8.71-22.67 8.71Zm-113-114q-12.81 0-21.9-8.71-9.1-8.71-9.1-22.29 0-13.58 9.1-22.29 9.09-8.71 21.9-8.71 13.58 0 22.67 8.71 9.1 8.71 9.1 22.29 0 13.58-9.1 22.29-9.09 8.71-22.67 8.71Zm-113-112q-12.81 0-21.9-8.71-9.1-8.71-9.1-22.29 0-13.58 9.1-22.29 9.09-8.71 21.9-8.71 13.58 0 22.67 8.71 9.1 8.71 9.1 22.29 0 13.58-9.1 22.29-9.09 8.71-22.67 8.71Zm330.39 535v-164.62h-160v-30.76h350.76v30.76h-160V-100h-30.76Z"/></svg>
